!!!!SEGMENT: pl-kk--kk-i-69--006_anonim--protexisti-pro-festo-posuisti-domine.krn
!!!id: 17xx:2287
!!!COM: Anonim
!!!COM-rism: pe30004985
!!!CDT:
!!!CNT:
!!!OTL: Protexisti pro festo – Posuisti Domine
!!!PDT:
!!!SMS-siglum: PL-Kk
!!!SMS-shelfmark: Kk.I.69
!!!NIFC-rismID: 1001154789
!!!URL-scan: http://repozytorium.nifc.pl/skany/pl-kk-nut--i-69
!!!ONB-nifc: UWAGA: części Mszy: 1. Protexisti me, 2. Kyrie, 3. Et in terra, 4. Alleluia, 5. Patrem, 6. Posuisti Domine, 7. Sanctus, 8. Benedictus, 9. Agnus Dei, 10. Dona nobis, 11. Deo gratias
!!!SMS-variant:
!!!SMS-altvar:
**kern	**text	**kern	**text	**kern	**text
*part3	*part3	*part2	*part2	*part1	*part1
*staff3	*staff3	*staff2	*staff2	*staff1	*staff1
*I"Baſso	*	*I"Tenore Secundo	*	*I"Tenore Primo	*
*I'B	*	*I'T 2	*	*I'T 1	*
*clefF4	*	*clefC4	*	*clefC4	*
*k[]	*	*k[]	*	*k[]	*
*M3/2	*	*M3/2	*	*M3/2	*
*2\right	*	*2\right	*	*2\right	*
=1	=1	=1	=1	=1	=1
4C/	Po-	1G	Po-	1c	Po-
4D/	.	.	.	.	.
4E/	.	.	.	.	.
4C/	.	.	.	.	.
4E/	-su-	2G/	-su-	2c\	-su-
4F/	.	.	.	.	.
=2	=2	=2	=2	=2	=2
4G\	-is-	1B	-is-	1d	-is-
4F\	.	.	.	.	.
4E\	.	.	.	.	.
4D\	.	.	.	.	.
2C/	-ti	2c\	-ti	2e\	-ti
=3	=3	=3	=3	=3	=3
4G\	Do-	1d	Do-	1f	Do-
4A\	.	.	.	.	.
4B\	.	.	.	.	.
4G\	.	.	.	.	.
4A\	-mi-	2d\	-mi-	2f\	-mi-
4B\	.	.	.	.	.
=4	=4	=4	=4	=4	=4
!LO:LB:g=original	!	!	!	!	!
2c\	-ne	2G/	-ne	2e\	-ne
2c\	Po-	2G/	Po-	2e\	Po-
!	!	!LO:TX:t=P:problem:skreślony takt	!	!	!
2c\	-su-	2G/	-su-	2e\	-su-
=5	=5	=5	=5	=5	=5
1c	-is-	1A	-is-	1f#X	-is-
2B\	-ti	2B\	-ti	2g\	-ti
=6	=6	=6	=6	=6	=6
2A\	Do-	1c	Do-	1g	Do-
2d\	.	.	.	.	.
2D/	-mi-	2c\	-mi-	2f#X\	-mi-
=7	=7	=7	=7	=7	=7
1G	-ne	1B	-ne	1g	-ne,
2GG/	in	2e\	in	2g\	in
=8	=8	=8	=8	=8	=8
!	!	!	!	!LO:LB:g=original	!
2.G\	ca-	2.d\	ca-	2.fn\	ca-
4G\	-pi-	4d\	-pi-	4f\	-pi-
4G\	-te	4d\	-te	4f\	-te
4G\	in	4d\	in	4f\	in
=9	=9	=9	=9	=9	=9
2C/	ca-	4c\	ca-	4e\	ca-
.	.	4B\	.	4d\	.
2E/	.	4c\	.	4e\	.
.	.	4d\	.	4f\	.
2C/	.	4e\	.	4g\	.
.	.	4c\	.	4e\	.
=10	=10	=10	=10	=10	=10
!LO:LB:g=original	!	!	!	!	!
1.G	.	4d\	.	4f\	.
.	.	4c\	.	4e\	.
.	.	4B\	.	4d\	.
.	.	4c\	.	4e\	.
.	.	4d\	.	4f\	.
.	.	4B\	.	4d\	.
=11	=11	=11	=11	=11	=11
!	!	!LO:LB:g=original	!	!	!
2.E\	.	2.c\	.	2.e\	.
4D/	-pi-	4d\	-pi-	4f\	-pi-
2C/	-te	2e\	-te	2g\	-te
=12	=12	=12	=12	=12	=12
2F\	e-	2A\	e-	2f\	e-
1G	.	2c\	.	2e\	.
.	.	2B\	.	2d\	.
=13	=13	=13	=13	=13	=13
!	!	!	!	!LO:LB:g=original	!
1C	-jus	1c	-jus	1e	-jus
2A\	co-	2c\	co-	2e\	co-
=14	=14	=14	=14	=14	=14
2G#X\	-ro-	2B\	-ro-	1.e	-ro-
2E\	.	2G#X/	.	.	.
2G#\	.	2B\	.	.	.
=15	=15	=15	=15	=15	=15
2A\	.	2c\	.	2e\	.
2A\	-nam	2c\	-nam	2e\	-nam
2A\	co-	2c\	co-	2e\	co-
=16	=16	=16	=16	=16	=16
1.E	-ro-	2B\	-ro-	2d\	-ro-
.	.	2G#X\	.	2B\	.
.	.	2B\	.	2d\	.
=17	=17	=17	=17	=17	=17
!LO:LB:g=original	!	!LO:LB:g=original	!	!	!
2AA/	.	2c\	.	2e\	-nam
2A\	-nam	2c\	-nam	2e\	.
2A\	de	2c\	de	2e\	de
=18	=18	=18	=18	=18	=18
2.B\	la-	2.d\	la-	2.f\	la-
4B\	-pi-	4d\	-pi-	4f\	-pi-
2c\	-de	2G/	-de	2e\	-de
=19	=19	=19	=19	=19	=19
1G	pre-	2B\	pre-	2d\	pre-
.	.	2c\	.	2e\	.
2G\	-ti-	2d\	-ti-	2f\	-ti-
=20	=20	=20	=20	=20	=20
!	!	!	!	!LO:LB:g=original	!
2C/	-o-	2e\	-o-	2g\	-o-
2D/	.	2d\	.	2f\	.
2E\	.	2c\	.	2e\	.
=21	=21	=21	=21	=21	=21
2F\	.	2A\	.	2d\	.
1G	.	2c\	.	2e\	.
.	.	2B\	.	2d\	.
=22	=22	=22	=22	=22	=22
1C	-so	1G	-so	1e	-so
2r	.	2r	.	2r	.
=23	=23	=23	=23	=23	=23
!LO:N:vis=0	!	!	!	!	!
0.r	.	1.r	.	4c\	vi-
.	.	.	.	4B\	.
.	.	.	.	4c\	.
.	.	.	.	4d\	.
.	.	.	.	4e\	.
.	.	.	.	4f\	.
=24-	=24	=24	=24	=24	=24
!	!	!LO:LB:g=original	!	!	!
.	.	4c\	vi-	4e\	.
.	.	4B\	.	4d\	.
.	.	4c\	.	4e\	.
.	.	4d\	.	4f\	.
.	.	4e\	.	4g\	.
.	.	4f\	.	4a\	.
=25	=25	=25	=25	=25	=25
4C/	vi-	4e\	.	2g\	-tam.
4BB/	.	4d\	.	.	.
4C/	.	4e\	.	2r	.
4D/	.	4f\	.	.	.
4E/	.	4g\	.	2r	.
4F/	.	4a\	.	.	.
=26	=26	=26	=26	=26	=26
!	!	!	!	!LO:LB:g=original	!
2E\	.	2g\	.	2c\	vi-
2D/	.	2f\	.	2B\	.
2C/	-tam	2e\	-tam	2G/	-tam
=27	=27	=27	=27	=27	=27
2.G\	pe-	2.d\	pe-	2.f\	pe-
4G\	-ti-	4d\	-ti-	4f\	-ti-
2c\	-it	2G/	-it	2e\	-it
=28	=28	=28	=28	=28	=28
2.G\	pe-	2.B\	pe-	2.d\	pe-
4G\	-ti-	4B\	-ti-	4d\	-ti-
2C/	-it	2G/	-it	2e\	-it
=29	=29	=29	=29	=29	=29
!	!	!LO:LB:g=original	!	!	!
2F\	s	2A\	a	2d\	a
1G	.	2c\	.	2e\	.
.	.	2B\	.	2d\	.
=30	=30	=30	=30	=30	=30
2C/	te	2c\	te	2e\	te
2C/	vi-	2e\	vi-	2g\	vi-
4BB/	-tam	4d\	-tam	4f\	-tam
4C/	.	4c\	.	4e\	.
=31	=31	=31	=31	=31	=31
!LO:LB:g=original	!	!	!	!LO:LB:g=original	!
2.G\	pe-	2.B\	pe-	2.d\	pe-
4G\	-ti-	4c\	-ti-	4e\	-ti-
2G\	-it	2B\	-it	2d\	-it
=32	=32	=32	=32	=32	=32
!LO:N:vis=0	!	!	!	!	!
0.r	.	4B\	vi-	4d\	vi-
.	.	4A\	.	4c\	.
.	.	4G\	.	4B\	.
.	.	4A\	.	4c\	.
.	.	4B\	-tam	4d\	-tam
.	.	4c\	.	4e\	.
=33-	=33	=33	=33	=33	=33
.	.	2d\	pe-	2f\	pe-
.	.	2B\	-ti-	2d\	-ti-
.	.	2c\	-it	2e\	-it
=34	=34	=34	=34	=34	=34
2F\	a	2A\	a	4d\	a
.	.	.	.	4f\	.
1G	.	2c\	.	2e\	.
.	.	2B\	.	2d\	.
=35	=35	=35	=35	=35	=35
!	!	!LO:LB:g=original	!	!	!
2C/	te	2c\	te	2e\	te
2C/	et	2G/	et	2e\	et
4E/	tri-	4G/	tri-	4g\	tri-
4C/	-bu-	4G/	-bu-	4e\	-bu-
=36	=36	=36	=36	=36	=36
!	!	!	!	!LO:PB:g=original	!
2G\	-is-	2B\	-is-	2d\	-is-
2G\	-ti	2B\	-ti	2d\	-ti
2r	.	2r	.	2r	.
=37	=37	=37	=37	=37	=37
4G\	et	2d\	et	2f\	et
4A\	.	.	.	.	.
4B\	tri-	2d\	tri-	2f\	tri-
4A\	.	.	.	.	.
4B\	-bu-	2d\	-bu-	2f\	-bu-
4G\	.	.	.	.	.
=38	=38	=38	=38	=38	=38
!LO:LB:g=original	!	!	!	!	!
2.C/	-is-	2.e\	-is-	2.g\	-is-
4D/	.	4d\	.	4f\	.
2E\	-ti	2c\	-ti	2e\	-ti
=39	=39	=39	=39	=39	=39
2F\	e-	2A\	e-	2d\	e-
2G\	.	2c\	.	2e\	.
2GG/	.	2B\	.	2d\	.
=40	=40	=40	=40	=40	=40
2C/	-i	2c\	-i	2e\	-i
4C/	al-	2e\	al-	2g\	al-
4D/	.	.	.	.	.
4E/	-le-	2c\	-le-	2e\	-le-
4F/	.	.	.	.	.
=41	=41	=41	=41	=41	=41
2G\	-lu-	2c\	-lu-	2e\	-lu-
2G\	-ia	2B\	-ia	2d\	-ia
2r	.	2r	.	2r	.
=42	=42	=42	=42	=42	=42
!	!	!LO:LB:g=original	!	!LO:LB:g=original	!
2G\	al-	2d\	al-	2f\	al-
2F\	.	2B\	.	2d\	.
2E\	.	2c\	.	2e\	.
=43	=43	=43	=43	=43	=43
!LO:LB:g=original	!	!	!	!	!
1G	.	2f\	.	2d\	.
.	.	2d\	.	2B\	.
2c\	-le-	2e\	-le-	2c\	-le-
=44	=44	=44	=44	=44	=44
2A\	-lu-	2d\	-lu-	2f\	-lu-
1G	.	2c\	.	2e\	.
.	.	2B\	.	2d\	.
=45	=45	=45	=45	=45	=45
2C/	-ia	2G/	-ia	2e\	-ia
2C/	al-	2G/	al-	2e\	al-
2C/	-le-	2G/	-le-	2e\	-le-
=46	=46	=46	=46	=46	=46
1.C	-lu-	1.A	-lu-	1.f	-lu-
=47	=47	=47	=47	=47	=47
1.C	-ia	1.G	-ia	1.e	-ia
==	==	==	==	==	==
*-	*-	*-	*-	*-	*-
!!!system-decoration: [(s1,s2,s3)]
!!!ENC: Kamil Watkowski
!!!END: 2021-08-06
